src/symbolic/status/security-medium-symbolic.svg

<svg xmlns="http://www.w3.org/2000/svg" width="16" height="16"><path class="warning" d="M8 0L2 2v7c0 2.07 1.58 3.489 2.94 4.439C6.3 14.389 8 15 8 15s1.7-.611 3.061-1.561C12.421 12.479 14 11.04 14 9V2L8 0zM7 3h2v6H7V3zm0 7h2v2H7v-2z" fill="#5294e2"/></svg>

<svg xmlns="http://www.w3.org/2000/svg" width="16" height="16" version="1.1">
 <path style="fill:#5294e2" class="warning" d="M 8 0 L 2 2 L 2 9 C 2 11.07 3.5795 12.489 4.9395 13.439 C 6.2995 14.389 8 15 8 15 C 8 15 9.7005 14.389 11.061 13.439 C 12.421 12.479 14 11.04 14 9 L 14 2 L 8 0 z M 7 3 L 9 3 L 9 9 L 7 9 L 7 3 z M 7 10 L 9 10 L 9 12 L 7 12 L 7 10 z"/>
</svg>
